icon/lg/centos-icon.svg

<?xml version="1.0" encoding="UTF-8" standalone="no"?>
<svg viewBox="0 0 256 256" version="1.1" xmlns="http://www.w3.org/2000/svg" xmlns:xlink="http://www.w3.org/1999/xlink" preserveAspectRatio="xMidYMid" height="1em" width="1em">
  <g>
    <path d="M107.860446,118.641168 L117.088645,127.817911 L107.860446,136.99288 L42.9010976,136.99288 L42.9010976,167.564282 L3.28602642,127.817911 L42.9010976,88.7386823 L42.9010976,118.641168 L107.860446,118.641168 L107.860446,118.641168 L107.860446,118.641168 L107.860446,118.641168 Z M136.414454,40.5732 L215.342964,40.5732 L215.342964,119.503484 L136.414454,119.503484 L136.414454,40.5732 L136.414454,40.5732 L136.414454,40.5732 L136.414454,40.5732 Z" fill="#932279"/>
    <path d="M137.274996,107.860446 L128.100027,117.088645 L118.925058,107.860446 L118.925058,42.9010976 L88.3518821,42.9010976 L128.100027,3.28602642 L167.177481,42.9010976 L137.274996,42.9010976 L137.274996,107.860446 L137.274996,107.860446 L137.274996,107.860446 L137.274996,107.860446 Z M136.414454,136.414454 L215.342964,136.414454 L215.342964,215.344738 L136.414454,215.344738 L136.414454,136.414454 L136.414454,136.414454 L136.414454,136.414454 L136.414454,136.414454 Z" fill="#EFA724"/>
    <path d="M148.057492,137.274996 L138.827519,128.100027 L148.057492,118.925058 L213.015067,118.925058 L213.015067,88.3518821 L252.631911,128.100027 L213.015067,167.177481 L213.015067,137.274996 L148.057492,137.274996 L148.057492,137.274996 L148.057492,137.274996 L148.057492,137.274996 Z M40.5732,136.414454 L119.501709,136.414454 L119.501709,215.344738 L40.5732,215.344738 L40.5732,136.414454 L40.5732,136.414454 L40.5732,136.414454 L40.5732,136.414454 Z" fill="#262577"/>
    <path d="M118.641168,148.057492 L127.816137,138.827519 L136.99288,148.057492 L136.99288,213.016841 L167.564282,213.016841 L127.816137,252.631911 L88.7404565,213.016841 L118.641168,213.016841 L118.641168,148.057492 L118.641168,148.057492 L118.641168,148.057492 L118.641168,148.057492 Z M40.5732,40.5732 L119.501709,40.5732 L119.501709,119.503484 L40.5732,119.503484 L40.5732,40.5732 L40.5732,40.5732 L40.5732,40.5732 L40.5732,40.5732 Z" fill="#9CCD2A"/>
    <path d="M37.7538176,37.7538176 L122.321092,37.7538176 L122.321092,122.321092 L37.7538176,122.321092 L37.7538176,37.7538176 L37.7538176,37.7538176 L37.7538176,37.7538176 L37.7538176,37.7538176 L37.7538176,37.7538176 Z M43.3908078,116.684101 L116.682327,116.684101 L116.682327,43.3925822 L43.3908078,43.3925822 L43.3908078,116.684101 L43.3908078,116.684101 L43.3908078,116.684101 L43.3908078,116.684101 Z M133.596846,37.7538176 L218.164121,37.7538176 L218.164121,122.321092 L133.596846,122.321092 L133.596846,37.7538176 L133.596846,37.7538176 L133.596846,37.7538176 L133.596846,37.7538176 Z M139.233837,116.684101 L212.525356,116.684101 L212.525356,43.3925822 L139.233837,43.3925822 L139.233837,116.684101 L139.233837,116.684101 L139.233837,116.684101 L139.233837,116.684101 Z M133.596846,133.596846 L218.164121,133.596846 L218.164121,218.165895 L133.596846,218.165895 L133.596846,133.596846 L133.596846,133.596846 L133.596846,133.596846 L133.596846,133.596846 Z M139.233837,212.525356 L212.525356,212.525356 L212.525356,139.233837 L139.233837,139.233837 L139.233837,212.525356 L139.233837,212.525356 L139.233837,212.525356 L139.233837,212.525356 Z M37.7538176,133.596846 L122.321092,133.596846 L122.321092,218.165895 L37.7538176,218.165895 L37.7538176,133.596846 L37.7538176,133.596846 L37.7538176,133.596846 L37.7538176,133.596846 Z M43.3908078,212.525356 L116.682327,212.525356 L116.682327,139.233837 L43.3908078,139.233837 L43.3908078,212.525356 L43.3908078,212.525356 L43.3908078,212.525356 L43.3908078,212.525356 L43.3908078,212.525356 Z" fill="#FFFFFF"/>
    <path d="M60.1882226,187.75773 L0.388574398,127.958082 L60.1864484,68.160208 L119.986097,127.958082 L60.1882226,187.75773 L60.1882226,187.75773 L60.1882226,187.75773 L60.1882226,187.75773 L60.1882226,187.75773 L60.1882226,187.75773 Z M8.36233399,127.958082 L60.1882226,179.78397 L112.012337,127.958082 L60.1864484,76.1339675 L8.36233399,127.958082 L8.36233399,127.958082 L8.36233399,127.958082 L8.36233399,127.958082 Z M127.958082,119.986097 L68.160208,60.1882226 L127.958082,0.388574398 L187.755956,60.1882226 L127.958082,119.986097 L127.958082,119.986097 L127.958082,119.986097 L127.958082,119.986097 Z M76.1339675,60.1882226 L127.958082,112.012337 L179.78397,60.1882226 L127.958082,8.36233399 L76.1339675,60.1882226 L76.1339675,60.1882226 L76.1339675,60.1882226 L76.1339675,60.1882226 Z M195.729716,187.75773 L135.931841,127.958082 L195.729716,68.160208 L255.527589,127.958082 L195.729716,187.75773 L195.729716,187.75773 L195.729716,187.75773 L195.729716,187.75773 Z M143.903827,127.958082 L195.729716,179.78397 L247.553829,127.958082 L195.729716,76.1339675 L143.903827,127.958082 L143.903827,127.958082 L143.903827,127.958082 L143.903827,127.958082 Z M127.958082,255.527589 L68.160208,195.729716 L127.958082,135.931841 L187.755956,195.729716 L127.958082,255.527589 L127.958082,255.527589 L127.958082,255.527589 L127.958082,255.527589 Z M76.1339675,195.729716 L127.958082,247.553829 L179.78397,195.729716 L127.958082,143.905601 L76.1339675,195.729716 L76.1339675,195.729716 L76.1339675,195.729716 L76.1339675,195.729716 L76.1339675,195.729716 L76.1339675,195.729716 Z" fill="#FFFFFF"/>
  </g>
</svg>

<svg width="256" height="256" xmlns="http://www.w3.org/2000/svg" preserveAspectRatio="xMidYMid"><path d="m107.86 118.641 9.229 9.177-9.229 9.175H42.901v30.571L3.286 127.818l39.615-39.08v29.903h64.96Zm28.554-78.068h78.929v78.93h-78.929v-78.93Z" fill="#932279"/><path d="m137.275 107.86-9.175 9.229-9.175-9.229V42.901H88.352L128.1 3.286l39.077 39.615h-29.902v64.96Zm-.86 28.554h78.928v78.93h-78.929v-78.93Z" fill="#EFA724"/><path d="m148.057 137.275-9.23-9.175 9.23-9.175h64.958V88.352l39.617 39.748-39.617 39.077v-29.902h-64.958Zm-107.484-.86h78.929v78.93H40.573v-78.93Z" fill="#262577"/><path d="m118.641 148.057 9.175-9.23 9.177 9.23v64.96h30.571l-39.748 39.615-39.076-39.615h29.901v-64.96ZM40.573 40.573h78.929v78.93H40.573v-78.93Z" fill="#9CCD2A"/><path d="M37.754 37.754h84.567v84.567H37.754V37.754Zm5.637 78.93h73.291V43.393H43.391v73.291Zm90.206-78.93h84.567v84.567h-84.567V37.754Zm5.637 78.93h73.291V43.393h-73.291v73.291Zm-5.637 16.913h84.567v84.569h-84.567v-84.57Zm5.637 78.928h73.291v-73.291h-73.291v73.291Zm-101.48-78.928h84.567v84.569H37.754v-84.57Zm5.637 78.928h73.291v-73.291H43.391v73.291Z" fill="#FFF"/><path d="m60.188 187.758-59.8-59.8L60.187 68.16l59.8 59.798-59.798 59.8Zm-51.826-59.8 51.826 51.826 51.824-51.826-51.826-51.824-51.824 51.824Zm119.596-7.972L68.16 60.188l59.798-59.8 59.798 59.8-59.798 59.798ZM76.134 60.188l51.824 51.824 51.826-51.824-51.826-51.826-51.824 51.826Zm119.596 127.57-59.798-59.8L195.73 68.16l59.798 59.798-59.798 59.8Zm-51.826-59.8 51.826 51.826 51.824-51.826-51.824-51.824-51.826 51.824Zm-15.946 127.57L68.16 195.73l59.798-59.798 59.798 59.798-59.798 59.798ZM76.134 195.73l51.824 51.824 51.826-51.824-51.826-51.824-51.824 51.824Z" fill="#FFF"/></svg>
